X: 14339
T: Galloping O'Hogan
R: jig
M: 6/8
K: Gmajor
|:A|BAG AGF|DGF G2 A|B^AB cBc|ADE F2 A|
B^AB cBc|def gag|fdc Adc|AGF G2:|2 AGF G||
|:Bd|gag f/g/af|gdB G2 e|fgf fed|cAF Ddc|
B^AB cBc|def gag|fdc Adc|AGF G:|2 AGF G2||

